polaris-icons/icons/new-icons/CurrencyConvertMinor.svg

<svg width="20" height="20" viewBox="0 0 20 20" fill="none" xmlns="http://www.w3.org/2000/svg">
<path d="M10.25 7C10.25 6.58579 10.5858 6.25 11 6.25H14.6893L13.9697 5.53033C13.6768 5.23744 13.6768 4.76256 13.9697 4.46967C14.2626 4.17678 14.7374 4.17678 15.0303 4.46967L17.0303 6.46967C17.171 6.61032 17.25 6.80109 17.25 7C17.25 7.19891 17.171 7.38968 17.0303 7.53033L15.0303 9.53033C14.7374 9.82322 14.2626 9.82322 13.9697 9.53033C13.6768 9.23744 13.6768 8.76256 13.9697 8.46967L14.6893 7.75H11C10.5858 7.75 10.25 7.41421 10.25 7Z" fill="#4A4A4A"/>
<path d="M7.25 5.25C7.25 4.83579 6.91421 4.5 6.5 4.5C6.08579 4.5 5.75 4.83579 5.75 5.25V6H5.37509C4.06336 6 3 7.06337 3 8.37509C3 9.68682 4.06337 10.7502 5.37509 10.7502H6.6545C7.1377 10.7502 7.52941 11.1419 7.52941 11.6251C7.52941 12.1083 7.1377 12.5 6.6545 12.5H3.75C3.33579 12.5 3 12.8358 3 13.25C3 13.6642 3.33579 14 3.75 14H4.75V14.75C4.75 15.1642 5.08579 15.5 5.5 15.5C5.91421 15.5 6.25 15.1642 6.25 14.75V14H6.6545C7.96613 14 9.02941 12.9367 9.02941 11.6251C9.02941 10.3135 7.96613 9.25019 6.6545 9.25019H5.37509C4.89179 9.25019 4.5 8.85839 4.5 8.37509C4.5 7.89179 4.89179 7.5 5.37509 7.5H8.27941C8.69363 7.5 9.02941 7.16421 9.02941 6.75C9.02941 6.33579 8.69363 6 8.27941 6H7.25V5.25Z" fill="#4A4A4A"/>
<path d="M12.8107 13.75H16.5C16.9142 13.75 17.25 13.4142 17.25 13C17.25 12.5858 16.9142 12.25 16.5 12.25H12.8107L13.5303 11.5303C13.8232 11.2374 13.8232 10.7626 13.5303 10.4697C13.2374 10.1768 12.7626 10.1768 12.4697 10.4697L10.4697 12.4697C10.1768 12.7626 10.1768 13.2374 10.4697 13.5303L12.4697 15.5303C12.7626 15.8232 13.2374 15.8232 13.5303 15.5303C13.8232 15.2374 13.8232 14.7626 13.5303 14.4697L12.8107 13.75Z" fill="#4A4A4A"/>
</svg>

<svg viewBox="0 0 20 20" xmlns="http://www.w3.org/2000/svg"><path d="M10.25 7a.75.75 0 0 1 .75-.75h3.69l-.72-.72a.75.75 0 0 1 1.06-1.06l2 2a.75.75 0 0 1 0 1.06l-2 2a.75.75 0 1 1-1.06-1.06l.72-.72h-3.69a.75.75 0 0 1-.75-.75Z" fill="#5C5F62"/><path d="M7.25 5.25a.75.75 0 0 0-1.5 0v.75h-.375a2.375 2.375 0 0 0 0 4.75h1.28a.875.875 0 1 1 0 1.75h-2.905a.75.75 0 0 0 0 1.5h1v.75a.75.75 0 0 0 1.5 0v-.75h.404a2.375 2.375 0 0 0 0-4.75h-1.279a.875.875 0 0 1 0-1.75h2.904a.75.75 0 1 0 0-1.5h-1.029v-.75Z" fill="#5C5F62"/><path d="M12.81 13.75h3.69a.75.75 0 0 0 0-1.5h-3.69l.72-.72a.75.75 0 1 0-1.06-1.06l-2 2a.75.75 0 0 0 0 1.06l2 2a.75.75 0 1 0 1.06-1.06l-.72-.72Z" fill="#5C5F62"/></svg>
